X:1
T:Title
%%score ( 1 2 3 ) { 4 | 5 }
L:1/8
Q:1/4=110
M:4/4
K:Eb
V:1 treble nm="Grand Piano, Soprano"
V:2 treble 
V:3 treble 
V:4 bass nm="Choir Pad, Dedication (Foster), 75.75 D"
V:5 bass 
V:1
 E2 [DF]2 [EG]2 [FB]2 | [DB]2 AG [CA]4 | [DA]2 [EG]2 [EF]2 [DF]2 | [EG]8 | E2 [EG]2 [FB]2 [Ge]2 | %5
w: By~Myles~Birket~Foster,~1890 * * *|||||
 [Fe]2 dc d2- [_Gd]2 | [Gd]2 [Gc]G [FB]2 [E=A]2 | [DB]8 | [Dc]2 [EB]2 [EA]2 [EG]2 | G2 z2 z4 | %10
w: |||||
 E2 E2 [EA]2 [DA]2 | [DG]8 | [CE]2 [DF]2 [EG]2 [DB]2 | e4 z4 | z2 .G2 z4 | E8 |] %16
w: ||||||
V:2
 x8 | z2 E2 z4 | x8 | x8 | x8 | z2 F2 F2 z2 | x8 | x8 | x8 | D2- [DF][_D=E] [=DF]4 | x8 | x8 | x8 | %13
 E2 z B B2 A2 | [DA]2 E-[EF] [EF]2 [DF]2 | x8 |] %16
V:3
 x8 | x8 | x8 | x8 | x8 | x8 | x8 | x8 | x8 | x8 | x8 | x8 | x8 | z2 E2 E4 | x8 | x8 |] %16
V:4
 B,2 B,2 B,2 F,2 | G,2 A,B, A,4 | A,2 B,2 C2 B,2 | B,8 | G,2 B,2 B,2 B,2 | =A,2 A,2 B,4 | %6
 =B,2[K:treble] CE D2 C2 | B,8 | A,2 G,2 C2 B,2 | A,3 G, A,4 | G,2[K:treble] C2 C2 C2 | C4 =B,4 | %12
 C2[K:bass] =B,2 _B,2 A,2 | G,2 B,2 C4 | B,2 B,C F,2 B,A, | G,8 |] %16
V:5
 G,2 F,2 E,2 D,2 | C,2 C,2 F,4 | B,,2 E,2 A,,2 B,,2 | E,8 | E,2 E,2 D,2 C,2 | F,2 F,2 z4 | %6
 E,2 E,2 F,2 F,2 | z8 | C,2 C,2 B,,2 B,,2 | B,,3 B,, B,,4 | C,2 C,2 F,2 F,2 | G,8 | %12
 A,2 A,2 G,2 F,2 | E,2 G,2 A,2 F,2 | B,,2 E,A,, B,,2 B,,2 | E,8 |] %16

